src/lib/packages/icons/src/assets/filled/filter-plus.svg

<svg width="24" height="24" viewBox="0 0 24 24" fill="none" xmlns="http://www.w3.org/2000/svg">
<path d="M13.8719 17.511C13.9519 17.566 14 17.654 14 17.751V21L10 18V14.002C10 13.604 9.84206 13.222 9.56006 12.94L4.43994 7.82001C4.15794 7.53801 4 7.156 4 6.758V4.5C4 3.672 4.672 3 5.5 3H18.5C19.328 3 20 3.672 20 4.5V6.76001C20 7.16001 19.8401 7.54001 19.5601 7.82001L19.5 7.88C19.44 7.94 19.37 7.97 19.29 7.97C19.25 7.97 19.21 7.96001 19.17 7.95001C18.13 7.49001 16.91 7.36 15.66 7.66C13.62 8.15 12 9.85 11.6 11.91C11.16 14.231 12.1709 16.341 13.8719 17.511ZM21 13C21 15.21 19.21 17 17 17C14.79 17 13 15.21 13 13C13 10.79 14.79 9 17 9C19.21 9 21 10.79 21 13ZM18.75 13C18.75 12.72 18.53 12.5 18.25 12.5H17.5V11.75C17.5 11.47 17.28 11.25 17 11.25C16.72 11.25 16.5 11.47 16.5 11.75V12.5H15.75C15.47 12.5 15.25 12.72 15.25 13C15.25 13.28 15.47 13.5 15.75 13.5H16.5V14.25C16.5 14.53 16.72 14.75 17 14.75C17.28 14.75 17.5 14.53 17.5 14.25V13.5H18.25C18.53 13.5 18.75 13.28 18.75 13Z" fill="currentColor"/>
</svg>

<svg xmlns="http://www.w3.org/2000/svg" width="24" height="24" fill="none"><path fill="currentColor" d="M13.872 17.511a.29.29 0 0 1 .128.24V21l-4-3v-3.998c0-.398-.158-.78-.44-1.062L4.44 7.82A1.502 1.502 0 0 1 4 6.758V4.5A1.5 1.5 0 0 1 5.5 3h13A1.5 1.5 0 0 1 20 4.5v2.26c0 .4-.16.78-.44 1.06l-.06.06c-.06.06-.13.09-.21.09-.04 0-.08-.01-.12-.02-1.04-.46-2.26-.59-3.51-.29-2.04.49-3.66 2.19-4.06 4.25-.44 2.321.57 4.431 2.272 5.601ZM21 13c0 2.21-1.79 4-4 4s-4-1.79-4-4 1.79-4 4-4 4 1.79 4 4Zm-2.25 0c0-.28-.22-.5-.5-.5h-.75v-.75c0-.28-.22-.5-.5-.5s-.5.22-.5.5v.75h-.75c-.28 0-.5.22-.5.5s.22.5.5.5h.75v.75c0 .28.22.5.5.5s.5-.22.5-.5v-.75h.75c.28 0 .5-.22.5-.5Z"/></svg>
